X: 3
T: Have A Drink With Me
R: jig
M: 6/8
L: 1/8
K: Gmaj
d3|:BAG E{D}ED| EGD E2d| BAB GED| EA{B}A {G}AGA|BAG E2D| EGD E2d|BAB GED|1 EGG G2A:|2 EGG G2B|||c2d efg|ded BAG|c2d ege|deg gdB| c2d e~e2|ded BAB|GED EGG |G3-G2B|||c2d efg|ded BAG|c2d e~e2|deg gdB| c2d efg|ded BAB|GED EGG |G3-G2B||


Tune 1922	Setting 15350

